app/assets/images/icon-money.svg

<svg width="85" height="80" viewBox="0 0 85 80" fill="none" xmlns="http://www.w3.org/2000/svg">
<path fill-rule="evenodd" clip-rule="evenodd" d="M42.4332 16.5009C42.3272 16.3862 42.212 16.2732 42.0894 16.1621C40.8578 15.045 38.8769 14.1273 37.9489 13.7295C35.123 12.5188 32.0657 11.7209 29.0845 11.0206C26.1711 10.3362 23.1908 10 20.2103 10C17.1332 10 14.0545 10.3575 11.043 11.0597C7.63782 11.8536 4.25511 13.2442 1.19707 14.9677C0.213206 15.5219 -0.0908932 16.4297 0.0408829 17.293C0.0120089 17.4626 -0.00549985 17.6404 0.00156508 17.8355C0.460171 30.8945 0.483976 43.9598 0.483976 57.026C0.483976 57.3107 0.533431 57.5617 0.604387 57.7957C0.639098 58.309 0.880841 58.8235 1.4319 59.262C7.11502 63.7808 14.698 66.3466 22.1321 66.3466C24.2892 66.3466 26.4322 66.122 28.5133 65.6751C33.3867 65.744 42.5658 65.1582 43.1337 62.5719C43.5781 60.5479 43.9167 58.609 44.1494 56.4337L68.391 54.8755C69.2021 54.37 69.9931 53.8428 70.7183 53.2784C71.1666 52.9303 71.3615 52.5218 71.3898 52.1146C71.4466 51.9283 71.4873 51.7295 71.4873 51.5034C71.4873 43.3448 71.5005 35.1813 71.6862 27.0219C71.7026 26.3075 71.7687 25.5448 71.836 24.7679C71.9671 23.2567 72.1027 21.6919 71.8859 20.3249C71.6613 18.907 68.7733 17.5788 67.6815 17.1215C65.3901 16.1599 62.9102 15.5266 60.494 14.9702C55.6912 13.8655 50.671 13.904 45.8637 15.0014C45.1516 15.1633 44.4411 15.3597 43.7354 15.5815L42.4332 16.5009Z" fill="#FFBA02"/>
<path d="M72.6814 8.54957C70.39 7.58797 67.9101 6.95474 65.4939 6.3983C60.6911 5.29356 55.6709 5.33211 50.8636 6.42948C50.1515 6.59135 49.441 6.78779 48.7352 7.00957C49.2759 7.64126 49.6102 8.28602 49.7133 8.94505C49.806 9.5471 49.8412 10.1674 49.8569 10.7938C56.6123 8.65723 63.8943 9.2172 70.4814 11.9948C64.4028 15.6083 56.3901 15.436 49.8232 12.689C49.7827 13.4337 49.7273 14.1805 49.6649 14.9194C49.6081 15.5862 49.5612 16.2164 49.5262 16.8278C57.113 19.6097 65.993 19.1969 72.8743 15.0369C72.8431 16.1084 72.8243 17.1804 72.7985 18.252C65.6134 22.2397 56.9206 22.7259 49.4537 19.4523C49.4256 20.8499 49.4007 22.2497 49.3803 23.6524C56.8915 26.4561 65.3965 26.081 72.7041 22.6946C72.6838 23.9382 72.6792 25.1825 72.6643 26.4257C65.1921 29.9844 57.0358 29.2049 49.3352 26.8921C49.3265 27.6204 49.321 28.3512 49.3149 29.0813C49.5557 29.038 49.7953 28.9927 50.0386 28.9584C50.9776 28.8242 51.9298 28.756 52.8711 28.756C57.1715 28.756 61.2279 30.1635 64.6055 32.5745C67.3142 32.3107 69.9954 31.7102 72.6175 30.6866C72.6104 31.6408 72.6121 32.5958 72.6066 33.5503C71.1942 34.4901 69.7271 35.2431 68.2266 35.8357C69.1149 36.8378 69.9182 37.9258 70.6185 39.0895C71.283 38.7963 71.942 38.4829 72.5894 38.1295C72.5855 39.489 72.5737 40.849 72.5737 42.2092C72.5737 42.3136 72.4762 42.4415 72.3224 42.5787C72.7803 43.772 73.1398 45.0167 73.3909 46.3036C74.202 45.7981 74.993 45.2709 75.7182 44.7065C76.1665 44.3584 76.3614 43.9499 76.3897 43.5427C76.4465 43.3564 76.4872 43.1576 76.4872 42.9315C76.4872 34.7729 76.5004 26.6094 76.6861 18.45C76.7343 16.3459 77.2141 13.8228 76.8857 11.753C76.6612 10.3351 73.7732 9.00694 72.6814 8.54957Z" fill="black"/>
<path d="M32.4973 52.2218C32.4517 52.2313 32.4076 52.243 32.3623 52.2514C30.801 52.5392 29.21 52.7162 27.6136 52.7739C27.2272 52.7879 26.8399 52.7942 26.4527 52.7942C24.3562 52.7942 22.2607 52.5867 20.2185 52.1514C18.4813 51.7802 16.7796 51.2235 15.1615 50.4786C14.4787 50.1642 10.3121 48.3362 10.3113 47.5439C10.3113 45.8468 10.2953 44.1497 10.2913 42.4527C15.6181 45.0567 21.3499 46.4708 27.0378 46.4708C28.963 46.4708 30.8824 46.3008 32.7813 45.9684C33.1425 44.0483 33.753 42.2108 34.5798 40.4966C32.065 41.2047 29.4924 41.5604 26.9084 41.5604C21.4323 41.5604 15.9106 40.0287 10.8072 37.2056C10.6259 37.1058 10.4472 37.034 10.2698 36.9824C10.2609 35.3704 10.2635 33.7579 10.2508 32.1463C16.357 34.2494 22.6789 35.6134 28.943 35.6134C32.3556 35.6134 35.7504 35.2012 39.0872 34.2915C40.0632 33.3641 41.1294 32.5328 42.2719 31.8126C43.9331 30.7672 45.7605 29.9616 47.7133 29.4382C47.7235 28.4224 47.7305 27.4066 47.7422 26.3915C47.7562 25.2634 47.7757 24.1349 47.7929 23.0056C47.8155 21.5671 47.838 20.1297 47.8684 18.6912C47.8763 18.336 47.8793 17.98 47.8872 17.6242C47.8973 17.1646 47.927 16.6854 47.9612 16.1999C48.058 14.8261 48.2108 13.3765 48.2569 11.97C48.2639 11.7625 48.2701 11.5558 48.2718 11.3503C48.2756 10.6043 48.2406 9.87787 48.1337 9.19104C48.0486 8.63659 47.6447 8.09367 47.0895 7.59037C45.8579 6.47319 43.8769 5.55552 42.9489 5.15773C40.123 3.94702 37.0657 3.14915 34.0845 2.4488C31.1711 1.76442 28.1908 1.42822 25.2103 1.42822C22.1332 1.42822 19.0545 1.78577 16.043 2.48796C12.6378 3.28184 9.25511 4.6724 6.19707 6.39594C5.21321 6.95007 4.90911 7.85792 5.04088 8.72122C5.01201 8.89078 4.9945 9.06863 5.00157 9.26368C5.46017 22.3227 5.48398 35.3881 5.48398 48.4542C5.48398 48.7389 5.53343 48.9899 5.60439 49.224C5.6391 49.7372 5.88084 50.2517 6.4319 50.6902C12.115 55.209 19.698 57.7748 27.1321 57.7748C29.2892 57.7748 31.4322 57.5503 33.5133 57.1033C33.1124 55.8797 32.8106 54.6068 32.6226 53.2935C32.5729 52.9355 32.5316 52.5783 32.4973 52.2218ZM25.2793 6.33742C30.357 6.33742 35.4449 7.43248 40.2359 9.49529C36.329 11.867 31.7719 12.9468 27.1592 12.9468C21.8789 12.9468 16.524 11.5332 11.9776 9.0267C16.2574 7.20318 20.7648 6.33742 25.2793 6.33742ZM9.94916 13.5547C15.0338 16.3546 20.8884 17.8216 26.7065 17.8216C32.0341 17.8216 37.3233 16.575 41.9712 14.013C42.3782 13.7888 42.7886 13.5708 43.1855 13.3256C43.1465 14.6751 43.1247 16.0248 43.0935 17.3744C42.7603 17.5631 42.4172 17.7299 42.0795 17.9062C37.3973 20.3476 32.2496 21.6081 27.1034 21.6081C21.2701 21.6081 15.4474 20.011 10.3225 16.7477C10.2196 16.6822 10.1175 16.6405 10.0154 16.5925C9.99201 15.58 9.97681 14.5674 9.94916 13.5547ZM10.1438 22.3235C15.4076 25.1439 21.2495 26.5314 27.0977 26.5314C32.252 26.5314 37.4088 25.4404 42.1833 23.3166C42.4478 23.1995 42.7153 23.0923 42.9774 22.9679C42.9516 24.5339 42.9462 26.1 42.9282 27.666C42.7029 27.7752 42.4751 27.8672 42.2481 27.9701C37.9703 29.9194 33.5187 30.7341 29.0338 30.7341C22.6901 30.7341 16.2796 29.1345 10.1934 26.9208C10.1749 25.3901 10.1696 23.8569 10.1438 22.3235Z" fill="black"/>
<path d="M71.6542 47.3067C71.5177 46.7092 71.3587 46.1227 71.1763 45.5457C70.9735 44.9092 70.7465 44.2869 70.4931 43.6785C69.9385 42.3497 69.2757 41.0846 68.4981 39.9163C67.7017 38.72 66.791 37.6274 65.8005 36.6362C64.1573 34.991 62.2785 33.6565 60.2468 32.7085C58.0343 31.6751 55.6508 31.0884 53.2028 31.0884C52.3418 31.0884 51.4691 31.157 50.6011 31.2911C50.3063 31.3363 50.0131 31.3902 49.7198 31.4507C49.5748 31.4811 49.4344 31.5178 49.2918 31.5516C49.0227 31.6144 48.756 31.6823 48.4916 31.7568C48.2217 31.8323 47.9542 31.9131 47.6897 32.0001C47.1749 32.1704 46.6696 32.3588 46.176 32.5714C45.0063 33.0752 43.9003 33.6964 42.8661 34.4147C42.671 34.5496 42.4792 34.6869 42.2898 34.8288C42.2133 34.8865 42.1393 34.9458 42.0643 35.0039C41.7906 35.2149 41.5249 35.4336 41.2642 35.6578C41.1226 35.7799 40.9806 35.9001 40.8421 36.0263C40.1803 36.6293 39.5612 37.2774 38.9856 37.9621C38.6237 38.3935 38.2809 38.842 37.9561 39.3021C36.6317 41.1754 35.6242 43.2764 34.9971 45.5054C34.914 45.7986 34.8392 46.0935 34.7701 46.3899C34.7038 46.6739 34.6442 46.9593 34.5907 47.2454C34.5892 47.2517 34.588 47.2588 34.5864 47.2634C34.4118 48.2101 34.3064 49.174 34.2728 50.1474C34.2631 50.4251 34.2591 50.7011 34.2624 50.9795C34.2648 51.2532 34.2717 51.5278 34.2862 51.803C34.3157 52.3707 34.3676 52.9409 34.4491 53.5118C34.6059 54.6077 34.8606 55.6674 35.1806 56.6955C35.2607 56.9512 35.3459 57.2032 35.4353 57.455C35.525 57.7078 35.6208 57.9573 35.7196 58.2045C38.6418 65.499 45.5682 70.5721 53.3796 70.5721C54.2413 70.5721 55.1125 70.5106 55.9704 70.3873C60.2903 69.7697 66.1746 66.1992 68.8177 62.5913C71.7845 58.5422 72.8545 53.3824 71.8296 48.0649C71.7829 47.8074 71.7127 47.5595 71.6542 47.3067ZM39.4076 44.9094C39.5531 44.5481 39.7086 44.1926 39.8787 43.8439C40.521 42.5305 41.3347 41.3124 42.2979 40.2229C43.7774 38.5485 45.5937 37.179 47.6659 36.275C47.9271 36.1619 48.1987 36.0698 48.467 35.9709C48.7313 35.8733 48.995 35.7744 49.2663 35.6913C49.4714 35.629 49.6828 35.5814 49.8918 35.5276C50.1054 35.4734 50.3137 35.4055 50.5313 35.3599C51.422 35.1747 52.3203 35.0807 53.2025 35.0807C55.9798 35.0807 58.4668 35.9811 60.5866 37.4238C62.01 38.3932 63.264 39.6091 64.3222 40.9771C65.34 42.2921 66.1815 43.7395 66.8134 45.2417C67.3079 46.4185 67.6813 47.6235 67.9107 48.8167C67.9216 48.8697 67.9247 48.9213 67.9333 48.9741C68.6945 53.1326 67.8725 57.1241 65.5982 60.2289C63.566 63.0029 58.7079 65.9604 55.4058 66.4331C54.7344 66.5282 54.0541 66.5773 53.3811 66.5773C47.2627 66.5773 41.8214 62.5942 39.47 56.8465C39.3694 56.6001 39.2774 56.3505 39.1881 56.0987C39.0995 55.8466 39.0181 55.5924 38.9406 55.335C38.709 54.5597 38.5197 53.7659 38.4016 52.9439C38.2762 52.0697 38.2425 51.1985 38.2676 50.3345C38.2762 50.0317 38.2952 49.7307 38.321 49.4312C38.3479 49.1224 38.3705 48.8129 38.4153 48.5079C38.546 47.6218 38.7609 46.757 39.035 45.9146C39.1484 45.5738 39.2743 45.2416 39.4076 44.9094Z" fill="black"/>
<path d="M45.8972 46.6034C46.2389 47.5705 46.8221 48.4346 47.5545 49.0841C47.7767 49.2815 48.0137 49.453 48.2611 49.6075C48.4966 49.7541 48.7408 49.882 48.9934 49.9841C49.0426 50.0036 49.091 50.0317 49.1409 50.0497C50.0324 50.3725 50.9596 50.5745 51.8448 50.7376C51.904 52.526 51.9486 54.3836 51.9788 56.3895C51.004 55.8514 50.0541 55.1277 49.4014 54.418C49.0388 54.0219 48.5849 53.8129 48.0871 53.8129C47.3447 53.8129 46.6116 54.3019 46.3051 55.0014C46.0211 55.6488 46.1443 56.3318 46.6444 56.8778C47.9942 58.3487 49.9845 59.648 52.0123 60.3904L52.0162 60.9902C52.0129 61.5073 52.1931 61.9636 52.5356 62.309C52.8982 62.6724 53.4169 62.8816 53.9573 62.8816C54.795 62.8816 55.699 62.3467 55.7059 61.169L55.7051 61.0552C57.2603 61.0052 58.5815 60.4897 59.6327 59.5172C61.4576 57.8317 62.5917 55.4273 62.5175 53.3949C62.4747 52.1953 62.0169 51.1331 61.1941 50.2839C61.0413 50.1271 60.8806 49.9751 60.7035 49.8324C59.1273 48.5736 57.24 48.0168 55.4087 47.6254C55.3884 47.1029 55.3643 46.581 55.344 46.0577C55.3096 45.2201 55.2762 44.3833 55.2394 43.5449C55.8665 43.7119 56.4732 43.927 57.0152 44.1766C58.0508 44.6553 59.1101 44.0573 59.358 42.9312C59.4719 42.4171 59.3892 41.8166 59.047 41.3362C58.8684 41.0851 58.6226 40.8644 58.2881 40.7108C57.3242 40.2654 56.219 39.9269 55.0725 39.7242V39.7079C55.0203 38.4952 53.9954 37.8423 53.0588 37.8423C52.5589 37.8423 52.1137 38.0186 51.8056 38.3399C51.5078 38.6518 51.361 39.0762 51.3829 39.5627L51.3845 39.5893C50.9983 39.6346 50.6304 39.7048 50.2723 39.7874C49.9174 39.8716 49.5735 39.9699 49.2499 40.0909C48.9692 40.1946 48.7049 40.3162 48.4497 40.4472C48.1682 40.5922 47.8991 40.75 47.6503 40.9261C47.2994 41.174 46.9796 41.4534 46.6973 41.7629C46.5321 41.9447 46.3917 42.1411 46.2622 42.3439C45.5945 43.389 45.3949 44.7039 45.7287 46.0562C45.7732 46.2446 45.834 46.424 45.8972 46.6034ZM58.8725 53.7083C58.871 54.8649 57.7675 56.3522 57.0084 56.8677C56.6263 57.1266 56.1802 57.2849 55.6764 57.3442C55.6523 55.2883 55.6108 53.3527 55.5509 51.4529C56.695 51.7556 57.5686 52.1352 58.3343 52.6571C58.6977 52.9049 58.8731 53.2481 58.8725 53.7083ZM51.695 46.906C51.4462 46.853 51.1982 46.7952 50.9541 46.7344C50.0937 46.5185 49.4084 45.8243 49.3272 45.0826C49.2935 44.7816 49.3708 44.5087 49.541 44.2683C49.6946 44.0516 49.9239 43.8588 50.2352 43.702C50.6142 43.5119 51.0524 43.3744 51.5453 43.2887C51.5711 43.9001 51.5952 44.5117 51.6217 45.1239C51.6466 45.7181 51.6707 46.3117 51.695 46.906Z" fill="black"/>
</svg>

<svg width="77" height="72" fill="none" xmlns="http://www.w3.org/2000/svg"><path fill-rule="evenodd" clip-rule="evenodd" d="M42.433 16.5a5.465 5.465 0 00-.344-.338c-1.231-1.117-3.212-2.035-4.14-2.432-2.826-1.211-5.883-2.01-8.864-2.71A38.812 38.812 0 0020.21 10c-3.077 0-6.155.357-9.167 1.06-3.405.794-6.788 2.184-9.846 3.908-.984.554-1.288 1.462-1.156 2.325a2.62 2.62 0 00-.04.543c.46 13.059.483 26.124.483 39.19 0 .285.05.536.12.77.035.513.277 1.028.828 1.466 5.683 4.519 13.266 7.085 20.7 7.085 2.157 0 4.3-.225 6.381-.672 4.874.069 14.053-.517 14.62-3.103a55.302 55.302 0 001.016-6.138l24.242-1.558a27.346 27.346 0 002.327-1.598c.449-.348.644-.756.672-1.163.057-.187.097-.386.097-.612 0-8.158.014-16.322.2-24.481.016-.714.082-1.477.149-2.254.131-1.511.267-3.076.05-4.443-.225-1.418-3.113-2.746-4.204-3.203-2.292-.962-4.772-1.595-7.188-2.152-4.803-1.104-9.823-1.066-14.63.031-.712.162-1.423.359-2.129.58l-1.302.92z" fill="#FFBA02"/><path d="M72.681 8.55c-2.291-.962-4.77-1.595-7.187-2.152-4.803-1.104-9.823-1.066-14.63.031-.713.162-1.423.359-2.129.58.54.632.875 1.277.978 1.936.093.602.128 1.222.144 1.849 6.755-2.137 14.037-1.577 20.624 1.2-6.078 3.614-14.09 3.442-20.658.695-.04.745-.096 1.492-.158 2.23a68.814 68.814 0 00-.139 1.909c7.587 2.782 16.467 2.369 23.348-1.791-.03 1.071-.05 2.143-.075 3.215-7.186 3.988-15.878 4.474-23.345 1.2a755.281 755.281 0 00-.074 4.2c7.511 2.804 16.017 2.429 23.324-.957-.02 1.243-.025 2.488-.04 3.73-7.472 3.56-15.628 2.78-23.329.467-.008.728-.014 1.46-.02 2.19.24-.044.48-.09.724-.124a20.081 20.081 0 012.832-.202c4.3 0 8.357 1.407 11.735 3.819 2.708-.264 5.39-.865 8.011-1.888-.007.954-.005 1.909-.01 2.863a23.398 23.398 0 01-4.38 2.286 22.038 22.038 0 012.391 3.254 26.012 26.012 0 001.971-.96c-.004 1.359-.015 2.719-.015 4.08 0 .104-.098.231-.252.369a22.338 22.338 0 011.069 3.725 27.346 27.346 0 002.327-1.598c.448-.348.643-.756.672-1.163.056-.187.097-.385.097-.611 0-8.16.013-16.323.2-24.482.047-2.104.527-4.627.199-6.697-.225-1.418-3.113-2.746-4.205-3.203zM32.497 52.222l-.135.03a32.757 32.757 0 01-5.91.542c-2.096 0-4.191-.207-6.234-.643a24.187 24.187 0 01-5.056-1.673c-.683-.314-4.85-2.142-4.85-2.934 0-1.697-.017-3.394-.02-5.091 5.326 2.604 11.058 4.018 16.746 4.018 1.925 0 3.844-.17 5.743-.503.361-1.92.972-3.757 1.799-5.472a28.262 28.262 0 01-7.672 1.064c-5.476 0-10.997-1.532-16.1-4.355-.182-.1-.36-.171-.538-.223-.01-1.612-.006-3.224-.02-4.836 6.107 2.103 12.429 3.467 18.693 3.467 3.413 0 6.807-.412 10.144-1.322a20.471 20.471 0 013.185-2.478 19.852 19.852 0 015.441-2.375c.01-1.016.017-2.032.03-3.047.013-1.128.033-2.256.05-3.386.023-1.438.045-2.875.075-4.314.008-.355.011-.711.02-1.067.01-.46.039-.939.073-1.424.097-1.374.25-2.824.296-4.23.007-.208.013-.414.015-.62a13.676 13.676 0 00-.138-2.16c-.085-.554-.49-1.096-1.044-1.6-1.232-1.117-3.213-2.035-4.141-2.432-2.826-1.211-5.883-2.009-8.864-2.71a38.813 38.813 0 00-8.875-1.02c-3.077 0-6.155.358-9.167 1.06-3.405.794-6.788 2.184-9.846 3.908-.984.554-1.288 1.462-1.156 2.325a2.62 2.62 0 00-.04.543c.46 13.059.483 26.124.483 39.19 0 .285.05.536.12.77.035.513.277 1.028.828 1.466 5.683 4.519 13.266 7.085 20.7 7.085 2.157 0 4.3-.225 6.381-.672a22.448 22.448 0 01-1.016-4.881zM25.28 6.337c5.078 0 10.166 1.095 14.957 3.158-3.907 2.372-8.464 3.452-13.077 3.452-5.28 0-10.635-1.414-15.181-3.92 4.28-1.824 8.787-2.69 13.301-2.69zM9.95 13.555c5.085 2.8 10.94 4.267 16.758 4.267 5.327 0 10.616-1.247 15.264-3.81.407-.223.818-.441 1.215-.687-.04 1.35-.061 2.7-.093 4.05-.333.188-.676.355-1.014.531-4.682 2.442-9.83 3.702-14.976 3.702-5.833 0-11.656-1.597-16.78-4.86-.103-.066-.206-.108-.308-.156-.023-1.012-.038-2.025-.066-3.037zm.195 8.768c5.264 2.82 11.106 4.208 16.954 4.208a37.183 37.183 0 0015.085-3.214c.265-.118.532-.225.794-.35-.025 1.567-.03 3.133-.049 4.699-.225.109-.453.201-.68.304-4.278 1.95-8.73 2.764-13.214 2.764-6.344 0-12.754-1.6-18.84-3.813-.02-1.531-.024-3.064-.05-4.598z" fill="#000"/><path d="M71.654 47.307a22.355 22.355 0 00-1.16-3.628 22.254 22.254 0 00-1.996-3.763 21.513 21.513 0 00-2.698-3.28c-1.643-1.645-3.521-2.98-5.553-3.927-2.213-1.034-4.596-1.62-7.044-1.62a17.086 17.086 0 00-3.483.362c-.145.03-.285.067-.428.1a18.235 18.235 0 00-1.602.45c-.515.17-1.02.358-1.514.57a18.928 18.928 0 00-3.31 1.844c-.195.135-.387.272-.576.414-.077.058-.15.117-.226.175-.273.211-.539.43-.8.654-.141.122-.283.242-.422.368a20.213 20.213 0 00-2.886 3.276 20.27 20.27 0 00-3.365 7.944l-.005.017a19.636 19.636 0 00-.3 4.54c.03.568.082 1.138.163 1.709a20.447 20.447 0 00.986 3.943c.09.253.186.503.285.75 2.922 7.294 9.848 12.367 17.66 12.367.861 0 1.732-.061 2.59-.185 4.32-.617 10.205-4.188 12.848-7.796 2.966-4.049 4.037-9.209 3.012-14.526-.047-.258-.117-.505-.176-.758zm-32.246-2.398c.145-.36.3-.716.47-1.065a16.227 16.227 0 012.42-3.621c1.48-1.674 3.296-3.044 5.368-3.948.261-.113.533-.205.801-.304.264-.098.528-.196.8-.28.204-.062.416-.11.625-.163.213-.054.422-.122.64-.168.89-.185 1.788-.28 2.67-.28 2.778 0 5.265.901 7.385 2.344 1.423.97 2.677 2.185 3.735 3.553a19.09 19.09 0 012.491 4.265 18.104 18.104 0 011.098 3.575c.01.053.014.104.022.157.761 4.159-.06 8.15-2.335 11.255-2.032 2.774-6.89 5.731-10.192 6.204a14.48 14.48 0 01-2.025.144c-6.118 0-11.56-3.983-13.911-9.73a16.887 16.887 0 01-.53-1.512c-.231-.775-.42-1.569-.538-2.391a15.221 15.221 0 01-.134-2.61c.008-.302.027-.603.053-.903.027-.308.05-.618.094-.923.131-.886.346-1.75.62-2.593.113-.341.24-.673.373-1.005z" fill="#000"/><path d="M45.897 46.603a6.011 6.011 0 001.657 2.481 5.226 5.226 0 001.44.9c.049.02.097.048.147.066.892.323 1.819.525 2.704.688.06 1.788.104 3.646.134 5.651-.975-.538-1.925-1.261-2.578-1.971-.362-.396-.816-.605-1.314-.605-.742 0-1.475.489-1.782 1.188-.284.648-.16 1.33.34 1.877 1.35 1.47 3.34 2.77 5.367 3.512l.004.6c-.003.517.177.974.52 1.319.362.363.88.573 1.421.573.838 0 1.742-.535 1.749-1.713v-.114c1.554-.05 2.875-.565 3.927-1.538 1.825-1.685 2.959-4.09 2.885-6.122a4.617 4.617 0 00-1.324-3.111 5.526 5.526 0 00-.49-.452c-1.577-1.258-3.464-1.815-5.295-2.207-.02-.522-.045-1.044-.065-1.567-.034-.838-.068-1.675-.105-2.513a11.15 11.15 0 011.776.632c1.036.478 2.095-.12 2.343-1.246a2.022 2.022 0 00-.311-1.595 1.877 1.877 0 00-.759-.625 13.252 13.252 0 00-3.215-.987v-.016c-.053-1.213-1.078-1.866-2.014-1.866-.5 0-.945.177-1.253.498-.298.312-.445.736-.423 1.223l.002.026c-.387.046-.755.116-1.113.198a8.582 8.582 0 00-1.022.304c-.28.104-.545.225-.8.356-.282.145-.55.303-.8.48-.35.247-.67.526-.953.836a4.258 4.258 0 00-.435.58c-.668 1.046-.867 2.36-.533 3.713.044.189.105.368.168.547zm12.976 7.105c-.002 1.157-1.105 2.644-1.864 3.16a2.956 2.956 0 01-1.333.476 295.787 295.787 0 00-.125-5.891c1.144.303 2.018.682 2.783 1.204.364.248.54.591.538 1.051zm-7.178-6.802c-.249-.053-.497-.11-.74-.172-.861-.215-1.547-.91-1.628-1.651a1.152 1.152 0 01.214-.815 1.85 1.85 0 01.694-.566c.38-.19.817-.328 1.31-.413.026.611.05 1.223.077 1.835l.073 1.782z" fill="#000"/></svg>
